rospo-newyear-light/symbolic/status/network-cellular-acquiring-symbolic.svg

<svg height="16" width="16" xmlns="http://www.w3.org/2000/svg"><g fill="#5c616c"><path d="m15 1-4 4h4zm-10 10-4 4h14v-4z" opacity=".3"/><path d="m5 8a2 2 0 0 1 -2 2 2 2 0 0 1 -2-2 2 2 0 0 1 2-2 2 2 0 0 1 2 2z"/><path d="m10 8a2 2 0 0 1 -2 2 2 2 0 0 1 -2-2 2 2 0 0 1 2-2 2 2 0 0 1 2 2z"/><path d="m15 8a2 2 0 0 1 -2 2 2 2 0 0 1 -2-2 2 2 0 0 1 2-2 2 2 0 0 1 2 2z"/></g></svg>

<svg xmlns="http://www.w3.org/2000/svg" width="16" height="16" version="1.1">
 <path style="fill:#5c616c;opacity:0.3" d="M 15 1 L 11 5 L 15 5 L 15 1 z M 5 11 L 1 15 L 15 15 L 15 11 L 5 11 z"/>
 <path style="fill:#5c616c" d="M 5,8 A 2,2 0 0 1 3,10 2,2 0 0 1 1,8 2,2 0 0 1 3,6 2,2 0 0 1 5,8 Z"/>
 <path style="fill:#5c616c" d="M 10,8 A 2,2 0 0 1 8,10 2,2 0 0 1 6,8 2,2 0 0 1 8,6 2,2 0 0 1 10,8 Z"/>
 <path style="fill:#5c616c" d="M 15,8 A 2,2 0 0 1 13,10 2,2 0 0 1 11,8 2,2 0 0 1 13,6 2,2 0 0 1 15,8 Z"/>
</svg>
